images/sborka-i-montazh.svg

<svg width="60" height="80" viewBox="0 0 60 80" fill="none" xmlns="http://www.w3.org/2000/svg">
<path d="M20.8443 37.9495C20.3999 38.0384 20.0443 38.3939 20.0443 38.8384V41.9495C20.0443 42.3939 20.3999 42.7495 20.8443 42.8384L22.9776 43.1939C23.0665 43.3717 23.1554 43.5495 23.1554 43.7272L21.911 45.4161C21.6443 45.7717 21.6443 46.305 21.9998 46.5717L24.2221 48.7939C24.4887 49.1494 25.022 49.1494 25.3776 48.8828L27.0665 47.6383C27.2443 47.7272 27.422 47.8161 27.5998 47.8161L27.9554 49.9494C28.0443 50.3939 28.3998 50.7494 28.8442 50.7494H31.9553C32.3998 50.7494 32.7553 50.3939 32.8442 49.9494L33.1998 47.8161C33.3776 47.7272 33.5553 47.6383 33.7331 47.6383L35.422 48.8828C35.7775 49.1494 36.3109 49.1494 36.5775 48.7939L38.7997 46.5717C39.1553 46.2161 39.1553 45.7717 38.8886 45.4161L37.6442 43.7272C37.7331 43.5495 37.822 43.3717 37.822 43.1939L39.9553 42.8384C40.3997 42.7495 40.7553 42.3939 40.7553 41.9495V38.8384C40.7553 38.3939 40.3997 38.0384 39.9553 37.9495L37.822 37.5939C37.7331 37.4162 37.6442 37.2384 37.6442 37.0606L38.8886 35.3717C39.1553 35.0162 39.1553 34.4829 38.7997 34.2162L36.5775 31.994C36.3109 31.6384 35.7775 31.6384 35.422 31.9051L33.5553 33.2384C33.3776 33.1495 33.1998 33.0606 33.022 33.0606L32.6664 30.9273C32.5776 30.4829 32.222 30.1273 31.7776 30.1273H28.6665C28.222 30.1273 27.8665 30.4829 27.7776 30.9273L27.422 33.0606C27.2443 33.1495 27.0665 33.2384 26.8887 33.2384L25.1998 31.994C24.8443 31.7273 24.3109 31.7273 24.0443 32.0829L21.9998 34.2162C21.6443 34.5717 21.6443 35.0162 21.911 35.3717L23.1554 37.0606C23.0665 37.2384 22.9776 37.4162 22.9776 37.5939L20.8443 37.9495ZM23.7776 39.2828C24.1332 39.1939 24.3998 39.0162 24.4887 38.6606C24.5776 38.2162 24.7554 37.8606 25.022 37.4162C25.1998 37.1495 25.1998 36.7051 24.9332 36.4384L23.7776 34.9273L24.9332 33.7717L26.4443 34.9273C26.7109 35.1051 27.0665 35.194 27.422 35.0162C27.7776 34.8384 28.222 34.6606 28.6665 34.4829C29.022 34.394 29.2887 34.1273 29.2887 33.7717L29.5554 31.9051H31.1553L31.422 33.7717C31.5109 34.1273 31.6887 34.394 32.0442 34.4829C32.4887 34.5717 32.9331 34.7495 33.2887 35.0162C33.5553 35.194 33.9998 35.194 34.2664 34.9273L35.7775 33.7717L36.9331 34.9273L35.7775 36.4384C35.5998 36.7051 35.5109 37.0606 35.6887 37.4162C35.8664 37.7717 36.0442 38.2162 36.222 38.6606C36.3109 39.0162 36.5775 39.2828 36.9331 39.2828L38.7997 39.5495V41.1495L36.9331 41.4161C36.5775 41.505 36.3109 41.6828 36.222 42.0384C36.1331 42.4828 35.9553 42.8384 35.6887 43.2828C35.5109 43.5495 35.5109 43.9939 35.7775 44.2606L36.9331 45.7717L35.7775 46.9272L34.2664 45.7717C33.9998 45.5939 33.6442 45.505 33.2887 45.6828C32.9331 45.8606 32.4887 46.0383 32.0442 46.2161C31.6887 46.305 31.422 46.5717 31.422 46.9272L31.1553 48.7939H29.5554L29.2887 46.9272C29.1998 46.5717 29.022 46.305 28.6665 46.2161C28.222 46.1272 27.8665 45.9495 27.422 45.6828C27.1554 45.505 26.7109 45.505 26.4443 45.7717L24.9332 46.9272L23.7776 45.7717L24.9332 44.2606C25.1109 43.9939 25.1998 43.6384 25.022 43.2828C24.8443 42.9272 24.6665 42.4828 24.4887 42.0384C24.3998 41.6828 24.1332 41.4161 23.7776 41.4161L21.911 41.1495V39.5495L23.7776 39.2828Z" fill="#C29F5B"/>
<path d="M30.3552 45.2387C33.0219 45.2387 35.2441 43.0165 35.2441 40.3498C35.2441 37.6831 33.0219 35.4609 30.3552 35.4609C27.6886 35.4609 25.3775 37.6831 25.3775 40.3498C25.3775 43.0165 27.5997 45.2387 30.3552 45.2387ZM30.3552 37.2387C32.0441 37.2387 33.4663 38.6609 33.4663 40.3498C33.4663 42.0387 32.0441 43.4609 30.3552 43.4609C28.6663 43.4609 27.2441 42.0387 27.2441 40.3498C27.2441 38.6609 28.5775 37.2387 30.3552 37.2387Z" fill="#C29F5B"/>
<path d="M53.9997 55.9935L40.4887 60.7046C39.5998 61.0601 38.622 61.0601 37.7331 60.8823L33.4665 59.9046C34.7998 59.1046 35.9554 57.8601 36.4887 56.2602C36.5776 55.9935 36.5776 55.7268 36.3998 55.549C36.3109 55.3713 36.0443 55.1935 35.8665 55.1046L19.511 51.3713C19.3332 51.2824 19.0666 51.3713 18.8888 51.4602L8.93329 56.8824V56.349C8.93329 55.8157 8.48885 55.4602 8.04441 55.4602L2.88888 55.549C2.44444 55.549 2 55.9935 2 56.4379L2.17778 67.7268C2.17778 68.1712 2.62222 68.6156 3.06666 68.6156L8.22219 68.5267C8.75552 68.5267 9.11107 68.0823 9.11107 67.6379V66.2157H20.1332L37.9109 68.6156C38.1776 68.6156 38.5331 68.7045 38.7998 68.7045C39.7776 68.7045 40.7553 68.5267 41.6442 68.0823L56.2219 61.3268C57.8219 60.6157 58.3552 58.6601 57.4664 57.149C56.6664 55.9935 55.2441 55.549 53.9997 55.9935ZM3.95554 66.9268L3.77777 57.3268L7.15553 57.2379C7.15553 59.6379 7.24442 64.349 7.3333 66.749L3.95554 66.9268ZM55.4219 59.7268L40.8442 66.4823C39.9553 66.9268 38.9776 67.0156 38.0887 66.9268C19.2443 64.4379 20.2221 64.5268 20.1332 64.5268H9.02218L8.93329 58.9268L19.3332 53.1491L34.3554 56.5268C33.2887 58.3046 31.1554 59.2824 29.111 58.8379L21.911 57.2379C21.4666 57.149 20.9332 57.4157 20.8443 57.949C20.7555 58.4824 21.0221 58.9268 21.5554 59.0157C23.1554 59.3712 15.6888 57.6824 37.4665 62.6601C38.7109 62.9268 40.0442 62.8379 41.1998 62.4823L54.7108 57.7713C55.2441 57.5935 55.7775 57.7713 56.0441 58.2157C56.3108 58.6601 56.0441 59.4601 55.4219 59.7268Z" fill="#C29F5B"/>
<path d="M57.7335 13.2388C57.5557 13.061 57.378 12.9721 57.1113 12.9721L51.9558 12.8832C51.4224 12.8832 51.0669 13.2388 51.0669 13.7721V15.1943L40.0447 14.9276L22.3559 12.0832C21.1115 11.9054 19.7782 11.9943 18.5337 12.5276L3.86714 18.9276C2.26715 19.6387 1.64493 21.5943 2.53381 23.1054C3.24492 24.2609 4.66713 24.7942 5.91157 24.3498L19.5115 19.9943C20.4004 19.7276 21.3782 19.6387 22.267 19.9054L26.5337 20.972C25.1115 21.772 24.0448 23.0165 23.5115 24.5276C23.4226 24.7942 23.4226 25.0609 23.6004 25.2387C23.6892 25.4165 23.9559 25.5942 24.1337 25.6831L40.4003 29.8609C40.4892 29.8609 40.578 29.8609 40.578 29.8609C40.7558 29.8609 40.8447 29.8609 41.0225 29.772L50.978 24.6165V25.1498C50.978 25.6831 51.3335 26.0387 51.8669 26.0387L57.0224 26.1276C57.4668 26.1276 57.9113 25.772 57.9113 25.2387L58.0002 13.9499C58.0002 13.6832 57.9113 13.4165 57.7335 13.2388ZM40.4892 28.0831L25.5559 24.2609C28.4003 19.6387 34.0892 23.4609 38.0892 23.9054C38.5336 23.9943 39.0669 23.7276 39.1558 23.2831C39.2447 22.8387 38.9781 22.3054 38.5336 22.2165C36.9336 21.772 44.4002 23.7276 22.7115 18.1276C21.467 17.7721 20.1337 17.861 18.9782 18.2165L5.37824 22.572C4.84491 22.7498 4.31158 22.572 4.04492 22.0387C3.68936 21.4165 3.95603 20.7054 4.57825 20.4387L19.3337 14.1276C20.2226 13.7721 21.1115 13.6832 22.0893 13.7721L39.8669 16.6165C39.9558 16.6165 39.3336 16.6165 51.0669 16.9721L50.978 22.572L40.4892 28.0831ZM56.1335 24.2609H52.7558C52.7558 22.0387 52.8446 17.2387 52.8446 14.7499H56.2224L56.1335 24.2609Z" fill="#C29F5B"/>
<path d="M39.3334 51.6391C39.689 51.9946 40.2223 51.9946 40.5779 51.6391C45.9112 46.4836 47.0667 38.3947 43.3334 31.9947C43.0667 31.5503 42.5334 31.4614 42.089 31.6392C41.6445 31.9059 41.5556 32.4392 41.7334 32.8836C45.0223 38.5725 44.0445 45.7724 39.2445 50.3946C38.9779 50.7502 38.9779 51.2835 39.3334 51.6391Z" fill="#C29F5B"/>
<path d="M20.1333 29.5938C14.8889 34.8382 13.9111 42.9271 17.7333 49.327C18 49.7715 18.5333 49.8604 18.9778 49.5937C19.4222 49.327 19.5111 48.7937 19.2444 48.3493C15.8667 42.6604 16.6667 35.4604 21.3777 30.8383C21.7333 30.4827 21.7333 29.9494 21.3777 29.5938C21.0222 29.2383 20.4889 29.2383 20.1333 29.5938Z" fill="#C29F5B"/>
</svg>

<svg width="60" height="80" fill="none" xmlns="http://www.w3.org/2000/svg"><path d="M20.844 37.95c-.444.088-.8.444-.8.888v3.111c0 .445.356.8.8.89l2.134.355c.088.178.177.355.177.533l-1.244 1.69c-.267.355-.267.888.089 1.155l2.222 2.222c.267.355.8.355 1.156.089l1.689-1.245c.177.09.355.178.533.178l.355 2.133c.09.445.445.8.89.8h3.11c.445 0 .8-.355.89-.8l.355-2.133c.178-.089.355-.178.533-.178l1.689 1.245c.356.266.889.266 1.156-.09l2.222-2.221c.355-.356.355-.8.089-1.156l-1.245-1.689c.09-.177.178-.355.178-.533l2.133-.356c.445-.089.8-.444.8-.889v-3.11c0-.445-.355-.8-.8-.89l-2.133-.355c-.089-.178-.178-.356-.178-.533l1.245-1.69c.266-.355.266-.888-.09-1.155l-2.221-2.222c-.267-.356-.8-.356-1.156-.089l-1.867 1.333c-.177-.088-.355-.177-.533-.177l-.356-2.134c-.088-.444-.444-.8-.888-.8h-3.111c-.445 0-.8.356-.89.8l-.355 2.134c-.178.089-.355.177-.533.177l-1.69-1.244c-.355-.267-.888-.267-1.155.089L22 34.216c-.356.356-.356.8-.089 1.156l1.244 1.689c-.088.177-.177.355-.177.533l-2.134.355zm2.934 1.333c.355-.09.622-.267.71-.622.09-.445.267-.8.534-1.245.178-.266.178-.71-.089-.978l-1.155-1.51 1.155-1.156 1.511 1.155c.267.178.623.267.978.09.356-.179.8-.356 1.244-.534.356-.089.623-.356.623-.711l.266-1.867h1.6l.267 1.867c.089.355.267.622.622.71.445.09.89.267 1.245.534.266.178.71.178.977-.089l1.512-1.155 1.155 1.155-1.155 1.511c-.178.267-.267.623-.09.978.178.356.356.8.534 1.245.089.355.355.622.711.622l1.867.267v1.6l-1.867.266c-.355.089-.622.267-.711.622-.089.445-.267.8-.533 1.245-.178.267-.178.71.089.978l1.155 1.51-1.155 1.156-1.512-1.155c-.266-.178-.622-.267-.977-.09-.356.179-.8.356-1.245.534-.355.089-.622.356-.622.711l-.267 1.867h-1.6l-.266-1.867c-.09-.355-.267-.622-.623-.71-.444-.09-.8-.267-1.244-.534-.267-.178-.711-.178-.978.089l-1.51 1.155-1.156-1.155 1.155-1.511c.178-.267.267-.623.089-.978-.178-.356-.355-.8-.533-1.245-.09-.355-.356-.622-.711-.622l-1.867-.266v-1.6l1.867-.267z" fill="#C29F5B"/><path d="M30.355 45.239c2.667 0 4.89-2.222 4.89-4.89 0-2.666-2.223-4.888-4.89-4.888-2.666 0-4.977 2.222-4.977 4.889 0 2.666 2.222 4.889 4.977 4.889zm0-8c1.69 0 3.111 1.422 3.111 3.11 0 1.69-1.422 3.112-3.11 3.112-1.69 0-3.112-1.422-3.112-3.111a3.092 3.092 0 013.111-3.111zM54 55.993l-13.511 4.712c-.89.355-1.867.355-2.756.177l-4.266-.977c1.333-.8 2.488-2.045 3.022-3.645.089-.267.089-.533-.09-.711-.088-.178-.355-.355-.532-.444L19.51 51.37c-.178-.089-.444 0-.622.09l-9.956 5.421v-.533a.89.89 0 00-.889-.889l-5.155.089c-.445 0-.889.444-.889.889l.178 11.289c0 .444.444.889.889.889l5.155-.09a.89.89 0 00.89-.888v-1.422h11.021l17.778 2.4c.267 0 .622.088.889.088.978 0 1.955-.177 2.844-.622l14.578-6.755c1.6-.711 2.133-2.667 1.244-4.178-.8-1.156-2.222-1.6-3.466-1.156zM3.956 66.927l-.178-9.6 3.378-.09c0 2.4.088 7.112.177 9.512l-3.377.178zm51.466-7.2l-14.578 6.755c-.889.445-1.866.534-2.755.445-18.845-2.49-17.867-2.4-17.956-2.4H9.023l-.09-5.6 10.4-5.778 15.022 3.378c-1.066 1.778-3.2 2.755-5.244 2.31l-7.2-1.6c-.444-.088-.978.179-1.067.712-.088.533.178.978.711 1.067 1.6.355-5.866-1.334 15.912 3.644a7.557 7.557 0 003.733-.178l13.51-4.71c.534-.178 1.068 0 1.334.444.267.444 0 1.244-.622 1.51zm2.311-46.488a.807.807 0 00-.622-.267l-5.155-.089c-.534 0-.89.356-.89.89v1.421l-11.021-.266-17.69-2.845c-1.244-.178-2.577-.089-3.821.445l-14.667 6.4a2.942 2.942 0 00-1.333 4.177c.71 1.156 2.133 1.69 3.378 1.245l13.6-4.356c.888-.266 1.866-.355 2.755-.089l4.267 1.067c-1.422.8-2.49 2.044-3.022 3.556-.09.266-.09.533.088.71.09.178.356.356.534.445L40.4 29.861h.178c.178 0 .267 0 .444-.089l9.956-5.155v.533c0 .533.355.889.889.889l5.155.089a.89.89 0 00.89-.89L58 13.95c0-.267-.089-.534-.267-.711zM40.49 28.083l-14.933-3.822c2.844-4.622 8.533-.8 12.533-.356.445.09.978-.177 1.067-.622.089-.444-.178-.978-.622-1.067-1.6-.444 5.866 1.512-15.822-4.088-1.245-.356-2.578-.267-3.734.088l-13.6 4.356c-.533.178-1.066 0-1.333-.533a1.107 1.107 0 01.533-1.6l14.756-6.311c.889-.356 1.777-.445 2.755-.356l17.778 2.844c.089 0-.533 0 11.2.356l-.089 5.6-10.489 5.511zm15.645-3.822h-3.378c0-2.222.089-7.022.089-9.511h3.377l-.089 9.51zM39.333 51.64a.86.86 0 001.245 0c5.333-5.156 6.489-13.245 2.755-19.645-.266-.445-.8-.534-1.244-.356-.444.267-.533.8-.356 1.245a14.31 14.31 0 01-2.488 17.51.952.952 0 00.088 1.245zm-19.2-22.046c-5.244 5.244-6.222 13.333-2.4 19.733.267.445.8.533 1.245.267.444-.267.533-.8.266-1.245-3.377-5.689-2.577-12.889 2.134-17.51a.86.86 0 000-1.245.86.86 0 00-1.245 0z" fill="#C29F5B"/></svg>
